rospo-icon-theme-classic-common/48x48/apps/com.github.bcedu.shutdownscheduler.svg

<svg height="48" width="48" xmlns="http://www.w3.org/2000/svg"><circle cx="24" cy="24" fill="#4f4f4f" r="20"/><path d="m24 12c-7.1797 0-13 5.8203-13 13s5.8203 13 13 13 13-5.8203 13-13-5.8203-13-13-13zm0 3c5.5228 0 10 4.4772 10 10s-4.4772 10-10 10-10-4.4772-10-10 4.4772-10 10-10zm0 4c-1.108 0-2 .93613-2 2.0938v7.8125c0 1.158.892 2.094 2 2.094s2-.93613 2-2.0938v-7.8125c0-1.158-.892-2.094-2-2.094z" fill-rule="evenodd" opacity=".2"/><path d="m24 11c-7.18 0-13 5.82-13 13s5.82 13 13 13 13-5.82 13-13-5.82-13-13-13zm0 3c5.523 0 10 4.477 10 10s-4.477 10-10 10-10-4.477-10-10 4.477-10 10-10zm0 4c-1.108 0-2 .936-2 2.094v7.812c0 1.158.892 2.094 2 2.094s2-.936 2-2.094v-7.812c0-1.158-.892-2.094-2-2.094z" fill="#fff" fill-rule="evenodd"/><path d="m24 4a20 20 0 0 0 -20 20 20 20 0 0 0  .0215.582 20 20 0 0 1 19.978-19.582 20 20 0 0 1 19.979 19.418 20 20 0 0 0  .021-.418 20 20 0 0 0 -20-20z" fill="#fff" opacity=".1"/><path d="m43.979 24.418a20 20 0 0 1 -19.979 19.582 20 20 0 0 1 -19.978-19.418 20 20 0 0 0 -.022.418 20 20 0 0 0 20 20 20 20 0 0 0 20-20 20 20 0 0 0 -.021-.582z" opacity=".2"/><circle cx="37" cy="36" opacity=".2" r="11"/><circle cx="37" cy="35" fill="#cd4242" r="11"/><path d="m37 28a1 1 0 0 0 -1 1v5 1 1h7a1 1 0 0 0 1-1 1 1 0 0 0 -1-1h-5v-5a1 1 0 0 0 -1-1z" fill="#fff"/></svg>

<svg xmlns="http://www.w3.org/2000/svg" width="48" height="48" version="1">
 <circle cx="24" cy="24" r="20" style="fill:#4f4f4f"/>
 <path style="opacity:0.2;fill-rule:evenodd" d="m 24,12 c -7.1797,0 -13,5.8203 -13,13 0,7.1797 5.8203,13 13,13 7.1797,0 13,-5.8203 13,-13 0,-7.1797 -5.8203,-13 -13,-13 z m 0,3 c 5.5228,0 10,4.4772 10,10 0,5.5228 -4.4772,10 -10,10 -5.5228,0 -10,-4.4772 -10,-10 0,-5.5228 4.4772,-10 10,-10 z m 0,4 c -1.108,0 -2,0.93613 -2,2.0938 l 0,7.8125 c 0,1.158 0.892,2.094 2,2.094 1.108,0 2,-0.93613 2,-2.0938 L 26,21.094 C 26,19.936 25.108,19 24,19 Z"/>
 <path style="fill:#ffffff;fill-rule:evenodd" d="m 24,11 c -7.18,0 -13,5.82 -13,13 0,7.18 5.82,13 13,13 7.18,0 13,-5.82 13,-13 0,-7.18 -5.82,-13 -13,-13 z m 0,3 c 5.523,0 10,4.477 10,10 0,5.523 -4.477,10 -10,10 -5.523,0 -10,-4.477 -10,-10 0,-5.523 4.477,-10 10,-10 z m 0,4 c -1.108,0 -2,0.936 -2,2.094 l 0,7.812 c 0,1.158 0.892,2.094 2,2.094 1.108,0 2,-0.936 2,-2.094 l 0,-7.812 C 26,18.936 25.108,18 24,18 Z"/>
 <path d="M 24,4 A 20,20 0 0 0 4,24 20,20 0 0 0 4.0215,24.582 20,20 0 0 1 23.9995,5 20,20 0 0 1 43.9785,24.418 20,20 0 0 0 43.9995,24 a 20,20 0 0 0 -20,-20 z" style="opacity:0.1;fill:#ffffff"/>
 <path style="opacity:0.2" d="M 43.979,24.418 A 20,20 0 0 1 24,44 20,20 0 0 1 4.022,24.582 20,20 0 0 0 4,25 20,20 0 0 0 24,45 20,20 0 0 0 44,25 20,20 0 0 0 43.979,24.418 Z"/>
 <circle style="opacity:0.2" cx="37" cy="36" r="11"/>
 <circle style="fill:#cd4242" cx="37" cy="35" r="11"/>
 <path style="fill:#ffffff" d="m 37,28 a 1,1 0 0 0 -1,1 l 0,5 0,1 0,1 7,0 a 1,1 0 0 0 1,-1 1,1 0 0 0 -1,-1 l -5,0 0,-5 a 1,1 0 0 0 -1,-1 z"/>
</svg>
